{
  "type": "map",
  "version": "1.10",
  "orientation": "orthogonal",
  "renderorder": "right-down",
  "infinite": false,
  "width": 128,
  "height": 128,
  "tilewidth": 16,
  "tileheight": 16,
  "nextlayerid": 42,
  "nextobjectid": 42,
  "layers": [
    {
      "id": 36,
      "name": "Routes",
      "type": "objectgroup",
      "visible": true,
      "opacity": 1,
      "x": 0,
      "y": 0,
      "draworder": "topdown",
      "objects": [
        {
          "id": 32,
          "name": "quarry",
          "x": 0,
          "y": 0,
          "width": 0,
          "height": 0,
          "rotation": 0,
          "visible": true,
          "polyline": [
            {
              "x": 1024,
              "y": 1824
            },
            {
              "x": 512,
              "y": 1664
            },
            {
              "x": 352,
              "y": 1408
            },
            {
              "x": 352,
              "y": 768
            },
            {
              "x": 480,
              "y": 416
            },
            {
              "x": 1024,
              "y": 224
            }
          ],
          "properties": [
            {
              "name": "widthMeters",
              "type": "float",
              "value": 9
            }
          ]
        },
        {
          "id": 33,
          "name": "village",
          "x": 0,
          "y": 0,
          "width": 0,
          "height": 0,
          "rotation": 0,
          "visible": true,
          "polyline": [
            {
              "x": 1024,
              "y": 1824
            },
            {
              "x": 1024,
              "y": 1472
            },
            {
              "x": 960,
              "y": 1248
            },
            {
              "x": 1024,
              "y": 1024
            },
            {
              "x": 1104,
              "y": 768
            },
            {
              "x": 1024,
              "y": 512
            },
            {
              "x": 1024,
              "y": 224
            }
          ],
          "properties": [
            {
              "name": "widthMeters",
              "type": "float",
              "value": 10
            }
          ]
        },
        {
          "id": 34,
          "name": "flank",
          "x": 0,
          "y": 0,
          "width": 0,
          "height": 0,
          "rotation": 0,
          "visible": true,
          "polyline": [
            {
              "x": 1024,
              "y": 1824
            },
            {
              "x": 1504,
              "y": 1664
            },
            {
              "x": 1712,
              "y": 1344
            },
            {
              "x": 1664,
              "y": 928
            },
            {
              "x": 1728,
              "y": 592
            },
            {
              "x": 1456,
              "y": 352
            },
            {
              "x": 1024,
              "y": 224
            }
          ],
          "properties": [
            {
              "name": "widthMeters",
              "type": "float",
              "value": 9
            }
          ]
        },
        {
          "id": 35,
          "name": "cross-link-1",
          "x": 0,
          "y": 0,
          "width": 0,
          "height": 0,
          "rotation": 0,
          "visible": true,
          "polyline": [
            {
              "x": 352,
              "y": 1128
            },
            {
              "x": 656,
              "y": 1128
            },
            {
              "x": 960,
              "y": 1136
            },
            {
              "x": 1472,
              "y": 1136
            },
            {
              "x": 1664,
              "y": 928
            }
          ],
          "properties": [
            {
              "name": "widthMeters",
              "type": "float",
              "value": 7
            }
          ]
        }
      ]
    },
    {
      "id": 31,
      "name": "Scenery",
      "type": "objectgroup",
      "visible": true,
      "opacity": 1,
      "x": 0,
      "y": 0,
      "draworder": "topdown",
      "objects": [
        {
          "id": 1,
          "name": "quarry-outer-a",
          "type": "rock",
          "rotation": 0,
          "visible": true,
          "x": 80,
          "y": 1216,
          "width": 128,
          "height": 384,
          "properties": [
            {
              "name": "kind",
              "type": "string",
              "value": "wreck"
            },
            {
              "name": "destructible",
              "type": "bool",
              "value": false
            },
            {
              "name": "hp",
              "type": "float",
              "value": 0
            }
          ]
        },
        {
          "id": 2,
          "name": "quarry-outer-b",
          "type": "rock",
          "rotation": 0,
          "visible": true,
          "x": 80,
          "y": 800,
          "width": 128,
          "height": 352,
          "properties": [
            {
              "name": "kind",
              "type": "string",
              "value": "wreck"
            },
            {
              "name": "destructible",
              "type": "bool",
              "value": false
            },
            {
              "name": "hp",
              "type": "float",
              "value": 0
            }
          ]
        },
        {
          "id": 3,
          "name": "quarry-outer-c",
          "type": "rock",
          "rotation": 0,
          "visible": true,
          "x": 112,
          "y": 496,
          "width": 160,
          "height": 224,
          "properties": [
            {
              "name": "kind",
              "type": "string",
              "value": "wreck"
            },
            {
              "name": "destructible",
              "type": "bool",
              "value": false
            },
            {
              "name": "hp",
              "type": "float",
              "value": 0
            }
          ]
        },
        {
          "id": 4,
          "name": "quarry-inner-a",
          "type": "rock",
          "rotation": 0,
          "visible": true,
          "x": 480,
          "y": 1232,
          "width": 192,
          "height": 288,
          "properties": [
            {
              "name": "kind",
              "type": "string",
              "value": "wreck"
            },
            {
              "name": "destructible",
              "type": "bool",
              "value": false
            },
            {
              "name": "hp",
              "type": "float",
              "value": 0
            }
          ]
        },
        {
          "id": 5,
          "name": "quarry-inner-b",
          "type": "rock",
          "rotation": 0,
          "visible": true,
          "x": 480,
          "y": 800,
          "width": 224,
          "height": 256,
          "properties": [
            {
              "name": "kind",
              "type": "string",
              "value": "wreck"
            },
            {
              "name": "destructible",
              "type": "bool",
              "value": false
            },
            {
              "name": "hp",
              "type": "float",
              "value": 0
            }
          ]
        },
        {
          "id": 6,
          "name": "quarry-inner-c",
          "type": "rock",
          "rotation": 0,
          "visible": true,
          "x": 512,
          "y": 496,
          "width": 160,
          "height": 224,
          "properties": [
            {
              "name": "kind",
              "type": "string",
              "value": "wreck"
            },
            {
              "name": "destructible",
              "type": "bool",
              "value": false
            },
            {
              "name": "hp",
              "type": "float",
              "value": 0
            }
          ]
        },
        {
          "id": 7,
          "name": "house-sw",
          "type": "building",
          "rotation": 0,
          "visible": true,
          "x": 704,
          "y": 1184,
          "width": 160,
          "height": 224,
          "properties": [
            {
              "name": "kind",
              "type": "string",
              "value": "wreck"
            },
            {
              "name": "destructible",
              "type": "bool",
              "value": true
            },
            {
              "name": "hp",
              "type": "float",
              "value": 160
            }
          ]
        },
        {
          "id": 8,
          "name": "house-se",
          "type": "building",
          "rotation": 0,
          "visible": true,
          "x": 1152,
          "y": 1200,
          "width": 192,
          "height": 192,
          "properties": [
            {
              "name": "kind",
              "type": "string",
              "value": "wreck"
            },
            {
              "name": "destructible",
              "type": "bool",
              "value": true
            },
            {
              "name": "hp",
              "type": "float",
              "value": 160
            }
          ]
        },
        {
          "id": 9,
          "name": "house-nw",
          "type": "building",
          "rotation": 0,
          "visible": true,
          "x": 736,
          "y": 688,
          "width": 192,
          "height": 192,
          "properties": [
            {
              "name": "kind",
              "type": "string",
              "value": "wreck"
            },
            {
              "name": "destructible",
              "type": "bool",
              "value": true
            },
            {
              "name": "hp",
              "type": "float",
              "value": 160
            }
          ]
        },
        {
          "id": 10,
          "name": "house-ne",
          "type": "building",
          "rotation": 0,
          "visible": true,
          "x": 1264,
          "y": 624,
          "width": 160,
          "height": 256,
          "properties": [
            {
              "name": "kind",
              "type": "string",
              "value": "wreck"
            },
            {
              "name": "destructible",
              "type": "bool",
              "value": true
            },
            {
              "name": "hp",
              "type": "float",
              "value": 160
            }
          ]
        },
        {
          "id": 11,
          "name": "house-west",
          "type": "building",
          "rotation": 0,
          "visible": true,
          "x": 752,
          "y": 992,
          "width": 128,
          "height": 96,
          "properties": [
            {
              "name": "kind",
              "type": "string",
              "value": "wreck"
            },
            {
              "name": "destructible",
              "type": "bool",
              "value": true
            },
            {
              "name": "hp",
              "type": "float",
              "value": 160
            }
          ]
        },
        {
          "id": 12,
          "name": "house-east",
          "type": "building",
          "rotation": 0,
          "visible": true,
          "x": 1232,
          "y": 976,
          "width": 128,
          "height": 96,
          "properties": [
            {
              "name": "kind",
              "type": "string",
              "value": "wreck"
            },
            {
              "name": "destructible",
              "type": "bool",
              "value": true
            },
            {
              "name": "hp",
              "type": "float",
              "value": 160
            }
          ]
        },
        {
          "id": 13,
          "name": "rock-flank-s",
          "type": "rock",
          "rotation": 0,
          "visible": true,
          "x": 1424,
          "y": 1296,
          "width": 96,
          "height": 160,
          "properties": [
            {
              "name": "kind",
              "type": "string",
              "value": "wreck"
            },
            {
              "name": "destructible",
              "type": "bool",
              "value": false
            },
            {
              "name": "hp",
              "type": "float",
              "value": 0
            }
          ]
        },
        {
          "id": 14,
          "name": "rock-flank-n",
          "type": "rock",
          "rotation": 0,
          "visible": true,
          "x": 1424,
          "y": 496,
          "width": 96,
          "height": 160,
          "properties": [
            {
              "name": "kind",
              "type": "string",
              "value": "wreck"
            },
            {
              "name": "destructible",
              "type": "bool",
              "value": false
            },
            {
              "name": "hp",
              "type": "float",
              "value": 0
            }
          ]
        },
        {
          "id": 15,
          "name": "grove-s",
          "type": "vegetation",
          "rotation": 0,
          "visible": true,
          "x": 1440,
          "y": 1024,
          "width": 160,
          "height": 224,
          "properties": [
            {
              "name": "kind",
              "type": "string",
              "value": "bush"
            },
            {
              "name": "destructible",
              "type": "bool",
              "value": false
            },
            {
              "name": "hp",
              "type": "float",
              "value": 0
            }
          ]
        },
        {
          "id": 16,
          "name": "grove-n",
          "type": "vegetation",
          "rotation": 0,
          "visible": true,
          "x": 1440,
          "y": 720,
          "width": 128,
          "height": 160,
          "properties": [
            {
              "name": "kind",
              "type": "string",
              "value": "bush"
            },
            {
              "name": "destructible",
              "type": "bool",
              "value": false
            },
            {
              "name": "hp",
              "type": "float",
              "value": 0
            }
          ]
        },
        {
          "id": 17,
          "name": "grove-east-a",
          "type": "vegetation",
          "rotation": 0,
          "visible": true,
          "x": 1824,
          "y": 1248,
          "width": 128,
          "height": 256,
          "properties": [
            {
              "name": "kind",
              "type": "string",
              "value": "bush"
            },
            {
              "name": "destructible",
              "type": "bool",
              "value": false
            },
            {
              "name": "hp",
              "type": "float",
              "value": 0
            }
          ]
        },
        {
          "id": 18,
          "name": "grove-east-b",
          "type": "vegetation",
          "rotation": 0,
          "visible": true,
          "x": 1792,
          "y": 832,
          "width": 160,
          "height": 288,
          "properties": [
            {
              "name": "kind",
              "type": "string",
              "value": "bush"
            },
            {
              "name": "destructible",
              "type": "bool",
              "value": false
            },
            {
              "name": "hp",
              "type": "float",
              "value": 0
            }
          ]
        },
        {
          "id": 19,
          "name": "grove-east-c",
          "type": "vegetation",
          "rotation": 0,
          "visible": true,
          "x": 1840,
          "y": 432,
          "width": 128,
          "height": 224,
          "properties": [
            {
              "name": "kind",
              "type": "string",
              "value": "bush"
            },
            {
              "name": "destructible",
              "type": "bool",
              "value": false
            },
            {
              "name": "hp",
              "type": "float",
              "value": 0
            }
          ]
        },
        {
          "id": 20,
          "name": "scrub-north",
          "type": "vegetation",
          "rotation": 0,
          "visible": true,
          "x": 768,
          "y": 352,
          "width": 128,
          "height": 96,
          "properties": [
            {
              "name": "kind",
              "type": "string",
              "value": "bush"
            },
            {
              "name": "destructible",
              "type": "bool",
              "value": false
            },
            {
              "name": "hp",
              "type": "float",
              "value": 0
            }
          ]
        },
        {
          "id": 21,
          "name": "grove-kit-73921-0",
          "type": "vegetation",
          "rotation": 0,
          "visible": true,
          "x": 1800,
          "y": 232,
          "width": 96,
          "height": 128,
          "properties": [
            {
              "name": "kind",
              "type": "string",
              "value": "bush"
            },
            {
              "name": "destructible",
              "type": "bool",
              "value": false
            },
            {
              "name": "hp",
              "type": "float",
              "value": 0
            }
          ]
        },
        {
          "id": 22,
          "name": "rock-kit-73921-1",
          "type": "rock",
          "rotation": 0,
          "visible": true,
          "x": 448,
          "y": 184,
          "width": 80,
          "height": 96,
          "properties": [
            {
              "name": "kind",
              "type": "string",
              "value": "wreck"
            },
            {
              "name": "destructible",
              "type": "bool",
              "value": false
            },
            {
              "name": "hp",
              "type": "float",
              "value": 0
            }
          ]
        },
        {
          "id": 23,
          "name": "house-kit-73921-2",
          "type": "building",
          "rotation": 0,
          "visible": true,
          "x": 200,
          "y": 136,
          "width": 96,
          "height": 112,
          "properties": [
            {
              "name": "kind",
              "type": "string",
              "value": "wreck"
            },
            {
              "name": "destructible",
              "type": "bool",
              "value": true
            },
            {
              "name": "hp",
              "type": "float",
              "value": 160
            }
          ]
        },
        {
          "id": 24,
          "name": "grove-kit-73921-3",
          "type": "vegetation",
          "rotation": 0,
          "visible": true,
          "x": 1216,
          "y": 1472,
          "width": 96,
          "height": 128,
          "properties": [
            {
              "name": "kind",
              "type": "string",
              "value": "bush"
            },
            {
              "name": "destructible",
              "type": "bool",
              "value": false
            },
            {
              "name": "hp",
              "type": "float",
              "value": 0
            }
          ]
        },
        {
          "id": 25,
          "name": "rock-kit-73921-4",
          "type": "rock",
          "rotation": 0,
          "visible": true,
          "x": 1624,
          "y": 232,
          "width": 80,
          "height": 96,
          "properties": [
            {
              "name": "kind",
              "type": "string",
              "value": "wreck"
            },
            {
              "name": "destructible",
              "type": "bool",
              "value": false
            },
            {
              "name": "hp",
              "type": "float",
              "value": 0
            }
          ]
        },
        {
          "id": 26,
          "name": "house-kit-73921-5",
          "type": "building",
          "rotation": 0,
          "visible": true,
          "x": 1840,
          "y": 1600,
          "width": 96,
          "height": 112,
          "properties": [
            {
              "name": "kind",
              "type": "string",
              "value": "wreck"
            },
            {
              "name": "destructible",
              "type": "bool",
              "value": true
            },
            {
              "name": "hp",
              "type": "float",
              "value": 160
            }
          ]
        },
        {
          "id": 27,
          "name": "grove-kit-73921-6",
          "type": "vegetation",
          "rotation": 0,
          "visible": true,
          "x": 1296,
          "y": 1856,
          "width": 96,
          "height": 128,
          "properties": [
            {
              "name": "kind",
              "type": "string",
              "value": "bush"
            },
            {
              "name": "destructible",
              "type": "bool",
              "value": false
            },
            {
              "name": "hp",
              "type": "float",
              "value": 0
            }
          ]
        },
        {
          "id": 28,
          "name": "rock-kit-73921-7",
          "type": "rock",
          "rotation": 0,
          "visible": true,
          "x": 112,
          "y": 1824,
          "width": 80,
          "height": 96,
          "properties": [
            {
              "name": "kind",
              "type": "string",
              "value": "wreck"
            },
            {
              "name": "destructible",
              "type": "bool",
              "value": false
            },
            {
              "name": "hp",
              "type": "float",
              "value": 0
            }
          ]
        },
        {
          "id": 29,
          "name": "house-kit-73921-8",
          "type": "building",
          "rotation": 0,
          "visible": true,
          "x": 224,
          "y": 352,
          "width": 96,
          "height": 112,
          "properties": [
            {
              "name": "kind",
              "type": "string",
              "value": "wreck"
            },
            {
              "name": "destructible",
              "type": "bool",
              "value": true
            },
            {
              "name": "hp",
              "type": "float",
              "value": 160
            }
          ]
        },
        {
          "id": 30,
          "name": "grove-kit-73921-9",
          "type": "vegetation",
          "rotation": 0,
          "visible": true,
          "x": 584,
          "y": 1856,
          "width": 96,
          "height": 128,
          "properties": [
            {
              "name": "kind",
              "type": "string",
              "value": "bush"
            },
            {
              "name": "destructible",
              "type": "bool",
              "value": false
            },
            {
              "name": "hp",
              "type": "float",
              "value": 0
            }
          ]
        }
      ]
    },
    {
      "id": 41,
      "name": "Starts",
      "type": "objectgroup",
      "visible": true,
      "opacity": 1,
      "x": 0,
      "y": 0,
      "draworder": "topdown",
      "objects": [
        {
          "id": 37,
          "name": "South approach",
          "point": true,
          "x": 1024,
          "y": 1824,
          "width": 0,
          "height": 0,
          "rotation": 0,
          "visible": true,
          "properties": [
            {
              "name": "yawDegrees",
              "type": "float",
              "value": 0
            }
          ]
        },
        {
          "id": 38,
          "name": "Quarry entrance",
          "point": true,
          "x": 512,
          "y": 1664,
          "width": 0,
          "height": 0,
          "rotation": 0,
          "visible": true,
          "properties": [
            {
              "name": "yawDegrees",
              "type": "float",
              "value": 32
            }
          ]
        },
        {
          "id": 39,
          "name": "Flank entrance",
          "point": true,
          "x": 1504,
          "y": 1664,
          "width": 0,
          "height": 0,
          "rotation": 0,
          "visible": true,
          "properties": [
            {
              "name": "yawDegrees",
              "type": "float",
              "value": -33
            }
          ]
        },
        {
          "id": 40,
          "name": "North approach",
          "point": true,
          "x": 1024,
          "y": 224,
          "width": 0,
          "height": 0,
          "rotation": 0,
          "visible": true,
          "properties": [
            {
              "name": "yawDegrees",
              "type": "float",
              "value": 180
            }
          ]
        }
      ]
    }
  ],
  "tilesets": [],
  "properties": [
    {
      "name": "generator",
      "type": "string",
      "value": "quarry-kit-v1"
    },
    {
      "name": "seed",
      "type": "float",
      "value": 73921
    },
    {
      "name": "complexity",
      "type": "string",
      "value": "mixed"
    },
    {
      "name": "metersPerTile",
      "type": "float",
      "value": 1
    },
    {
      "name": "artwork",
      "type": "string",
      "value": "Procedural artwork rendered in game; this file contains editable layout geometry."
    }
  ]
}